svgs/sharp-light/house-laptop.svg

<svg xmlns="http://www.w3.org/2000/svg" viewBox="0 0 640 512"><!--! Font Awesome Pro 6.6.0 by @fontawesome - https://fontawesome.com License - https://fontawesome.com/license (Commercial License) Copyright 2024 Fonticons, Inc. --><path d="M240 3.4l10.1 8.2 216 176 12.4 10.1-20.2 24.8-12.4-10.1L416 188l0 36-32 0 0-62L240 44.6 96 162l0 222 176 0 0 32L80 416l-16 0 0-16 0-212L34.1 212.4 21.7 222.5 1.5 197.7l12.4-10.1 216-176L240 3.4zM192 176l96 0 16 0 0 16 0 32-32 0 0-16-64 0 0 64 48 0 16 0 0 32-16 0-64 0-16 0 0-16 0-96 0-16 16 0zm112 80l16 0 256 0 16 0 0 16 0 160 0 16-32 0 0-16 0-144-224 0 0 144 0 16-32 0 0-16 0-160 0-16zM256 480l384 0 0 32-384 0 0-32z"/></svg>

<svg xmlns="http://www.w3.org/2000/svg" viewBox="0 0 640 512"><!--! Font Awesome Pro 6.4.0 by @fontawesome - https://fontawesome.com License - https://fontawesome.com/license (Commercial License) Copyright 2023 Fonticons, Inc. --><path d="M240 3.4l10.1 8.2 216 176 12.4 10.1-20.2 24.8-12.4-10.1L416 188v36H384V162L240 44.6 96 162V384H272v32H80 64V400 188L34.1 212.4 21.7 222.5 1.5 197.7l12.4-10.1 216-176L240 3.4zM192 176h96 16v16 32H272V208H208v64h48 16v32H256 192 176V288 192 176h16zm112 80h16H576h16v16V432v16H560V432 288H336V432v16H304V432 272 256zM256 480H640v32H256V480z"/></svg>
